packages/foundations/assets/icons/functional/images/human/toys_14.svg

<svg width="14" height="14" viewBox="0 0 14 14" fill="none" xmlns="http://www.w3.org/2000/svg">
<g clip-path="url(#clip0_185_1224)">
<path fill-rule="evenodd" clip-rule="evenodd" d="M9.80022 1.40002C11.3466 1.40002 12.6002 2.65363 12.6002 4.20002C12.6002 4.88636 12.3915 5.52193 11.8225 6.13552C11.8664 6.36299 11.8923 6.65116 11.9002 7.00002C11.9002 8.40908 11.3013 9.72323 10.2735 10.6464C9.98591 10.9047 9.54333 10.881 9.28499 10.5934C9.02666 10.3057 9.05039 9.86317 9.338 9.60483C10.0732 8.9445 10.5002 8.00749 10.5002 7.00002C10.5002 6.74565 10.4784 6.35349 10.2473 5.61175C10.3655 5.52955 10.4941 5.43412 10.6331 5.32546C10.9878 5.06236 11.2002 4.64953 11.2002 4.20002C11.2002 3.42683 10.5733 2.81366 9.80022 2.80002C9.24904 2.7903 8.75571 3.10736 8.32023 3.75119C7.80852 3.58375 7.36851 3.50002 7.00022 3.50002C6.44778 3.50002 6.1771 3.59948 5.72905 3.75119C5.30696 3.0469 4.74582 2.80002 4.28772 2.80002C3.4662 2.80002 2.80022 3.466 2.80022 4.28752C2.80022 4.70396 2.97167 5.09081 3.26626 5.36824C3.44246 5.51495 3.58962 5.63468 3.70774 5.72741C3.54807 6.32943 3.47914 6.76187 3.50095 7.02473C3.61503 7.00845 3.73164 7.00002 3.85022 7.00002C4.61985 7.00002 5.3066 7.3549 5.75576 7.90995C5.83826 7.87615 5.93248 7.86378 6.03249 7.88093L6.1771 7.91828C6.36846 7.96192 6.45518 7.89848 6.47208 7.75678L6.48054 7.61617C6.5574 7.02798 7.44304 7.02798 7.5199 7.61617L7.52848 7.7575C7.54372 7.88359 7.61834 7.93971 7.74118 7.93971C7.77242 7.93971 7.83597 7.92245 7.93185 7.88794C8.43186 7.76442 8.80646 8.39535 8.41701 8.77565C8.05525 9.1289 7.69929 9.1765 7.29211 9.03562C7.17646 8.99114 7.07917 8.95428 7.00022 8.92502C6.67236 9.07403 6.39154 9.10946 6.27579 9.10916C6.32612 9.42192 6.30022 9.6974 6.20897 10.1147L7.00671 10.5575C7.11434 10.5203 7.22992 10.5 7.35022 10.5C7.93012 10.5 8.40022 10.9701 8.40022 11.55C8.40022 12.1299 7.93012 12.6 7.35022 12.6C6.85033 12.6 6.43203 12.2507 6.32612 11.7828L5.45678 11.2998C5.02666 11.6737 4.46487 11.9 3.85022 11.9C2.49712 11.9 1.40022 10.8031 1.40022 9.45002C1.40022 8.75774 1.68735 8.13252 2.14901 7.68696C2.11633 7.46124 2.10022 7.23157 2.10022 7.00002C2.10022 6.76095 2.11533 6.50161 2.16042 6.23772C1.72867 5.77519 1.38578 5.03226 1.40022 4.28752C1.40022 2.6928 2.693 1.40002 4.28772 1.40002C5.00896 1.40002 5.65708 1.64458 6.23862 2.15952C6.56476 2.11879 6.73442 2.10002 7.00022 2.10002C7.26602 2.10002 7.48815 2.12005 7.86402 2.17702C8.31533 1.70222 9.12338 1.40002 9.80022 1.40002ZM5.25022 5.25002C5.63682 5.25002 5.95022 5.56342 5.95022 5.95002C5.95022 6.33662 5.63682 6.65002 5.25022 6.65002C4.86362 6.65002 4.55022 6.33662 4.55022 5.95002C4.55022 5.56342 4.86362 5.25002 5.25022 5.25002ZM8.75022 5.25002C9.13682 5.25002 9.45022 5.56342 9.45022 5.95002C9.45022 6.33662 9.13682 6.65002 8.75022 6.65002C8.36362 6.65002 8.05022 6.33662 8.05022 5.95002C8.05022 5.56342 8.36362 5.25002 8.75022 5.25002ZM3.85022 8.40002C3.27032 8.40002 2.80022 8.87013 2.80022 9.45002C2.80022 10.0299 3.27032 10.5 3.85022 10.5C4.43012 10.5 4.90022 10.0299 4.90022 9.45002C4.90022 8.87013 4.43012 8.40002 3.85022 8.40002Z" fill="#1A1C1F"/>
</g>
<defs>
<clipPath id="clip0_185_1224">
<rect width="14" height="14" fill="white"/>
</clipPath>
</defs>
</svg>

<svg xmlns="http://www.w3.org/2000/svg" width="14" height="14" fill="none"><g clip-path="url(#a)"><path fill="#1A1C1F" fill-rule="evenodd" d="M9.8 1.4a2.8 2.8 0 0 1 2.8 2.8c0 .686-.208 1.322-.777 1.936q.066.34.077.864c0 1.41-.599 2.723-1.626 3.646a.7.7 0 0 1-.936-1.041A3.49 3.49 0 0 0 10.5 7c0-.254-.022-.647-.253-1.388q.178-.123.386-.287c.355-.263.567-.675.567-1.125 0-.773-.627-1.386-1.4-1.4q-.826-.015-1.48.951Q7.554 3.501 7 3.5c-.552 0-.823.1-1.271.251-.422-.704-.983-.951-1.441-.951a1.488 1.488 0 0 0-1.022 2.568q.264.22.442.36-.24.902-.207 1.297.17-.025.35-.025c.769 0 1.456.355 1.905.91a.5.5 0 0 1 .276-.03l.145.038c.191.044.278-.02.295-.161l.009-.14c.076-.589.962-.589 1.039 0l.008.14c.016.127.09.183.213.183a.7.7 0 0 0 .19-.052c.5-.124.875.507.486.888-.362.353-.718.4-1.125.26L7 8.925a1.9 1.9 0 0 1-.724.184c.05.313.024.588-.067 1.006l.798.442a1.05 1.05 0 1 1-.68 1.226l-.87-.483a2.45 2.45 0 0 1-3.308-3.613 4.8 4.8 0 0 1 .011-1.45c-.431-.462-.774-1.205-.76-1.95A2.888 2.888 0 0 1 6.24 2.16c.326-.041.495-.06.761-.06s.488.02.864.077C8.315 1.702 9.124 1.4 9.8 1.4M5.25 5.25a.7.7 0 1 1 0 1.4.7.7 0 0 1 0-1.4m3.5 0a.7.7 0 1 1 0 1.4.7.7 0 0 1 0-1.4M3.85 8.4a1.05 1.05 0 1 0 0 2.1 1.05 1.05 0 0 0 0-2.1" clip-rule="evenodd"/></g><defs><clipPath id="a"><path fill="#fff" d="M0 0h14v14H0z"/></clipPath></defs></svg>
